public/logos/MH.svg

<?xml version="1.0" encoding="UTF-8"?>
<svg xmlns="http://www.w3.org/2000/svg" xmlns:xlink="http://www.w3.org/1999/xlink" width="176pt" height="40.22pt" viewBox="0 0 176 40.22" version="1.1">
<defs>
<clipPath id="clip1">
  <path d="M 84 36 L 89 36 L 89 40.21875 L 84 40.21875 Z M 84 36 "/>
</clipPath>
<clipPath id="clip2">
  <path d="M 99 36 L 104 36 L 104 40.21875 L 99 40.21875 Z M 99 36 "/>
</clipPath>
<clipPath id="clip3">
  <path d="M 77 36 L 85 36 L 85 40.21875 L 77 40.21875 Z M 77 36 "/>
</clipPath>
<clipPath id="clip4">
  <path d="M 94 36 L 100 36 L 100 40.21875 L 94 40.21875 Z M 94 36 "/>
</clipPath>
<clipPath id="clip5">
  <path d="M 102 36 L 110 36 L 110 40.21875 L 102 40.21875 Z M 102 36 "/>
</clipPath>
<clipPath id="clip6">
  <path d="M 108 36 L 116 36 L 116 40.21875 L 108 40.21875 Z M 108 36 "/>
</clipPath>
<clipPath id="clip7">
  <path d="M 114 35 L 121 35 L 121 40.21875 L 114 40.21875 Z M 114 35 "/>
</clipPath>
<clipPath id="clip8">
  <path d="M 87 36 L 95 36 L 95 40.21875 L 87 40.21875 Z M 87 36 "/>
</clipPath>
</defs>
<g id="surface1">
<path style=" stroke:none;fill-rule:evenodd;fill:rgb(92.262268%,11.434937%,15.112305%);fill-opacity:1;" d="M 132.222656 16.625 L 132.523438 15.949219 L 141.246094 15.949219 C 143.257812 15.949219 144.003906 14.671875 144.320312 13.753906 C 144.640625 12.835938 145.371094 10.667969 145.691406 9.589844 C 146.011719 8.511719 145.570312 7.632812 144.121094 7.632812 L 137.230469 7.632812 L 138.320312 6.542969 L 149.523438 6.542969 C 150.640625 6.542969 151.53125 6.941406 151.53125 7.832031 C 151.53125 8.722656 149.644531 13.152344 149.644531 14.191406 C 149.644531 15.230469 150.371094 15.988281 151.691406 15.988281 C 153.007812 15.988281 154.855469 15.191406 155.652344 12.875 C 156.453125 10.558594 158.316406 5.183594 158.710938 4 C 159.105469 2.816406 158.710938 1.164062 156.820312 1.164062 L 144.609375 1.164062 L 145.632812 0.00390625 L 158.796875 0.00390625 C 161.25 0.00390625 166.296875 -0.0859375 169.777344 4.511719 C 173.257812 9.105469 170.445312 12.226562 172.539062 14.859375 C 173.65625 16.265625 176 15.992188 176 15.992188 L 175.71875 16.625 L 132.222656 16.625 "/>
<path style=" stroke:none;fill-rule:nonzero;fill:rgb(12.550354%,22.297668%,40.101624%);fill-opacity:1;" d="M 133.726562 33.164062 L 133.003906 32.191406 L 145.132812 32.191406 C 146.660156 32.191406 148.605469 31.234375 149.203125 29.476562 C 149.804688 27.71875 152.046875 21.320312 152.609375 19.710938 C 153.207031 17.996094 152.128906 17.34375 150.773438 17.34375 C 147.539062 17.34375 146.6875 21.546875 145.972656 23.636719 C 145.253906 25.722656 144.160156 26.511719 142.324219 26.511719 L 131.046875 26.511719 L 130.847656 25.59375 L 136.886719 25.59375 C 139.410156 25.59375 140.089844 24.234375 140.367188 23.476562 C 140.648438 22.71875 141.285156 21.03125 141.765625 19.59375 C 142.246094 18.15625 141.808594 17.304688 140.289062 17.304688 L 131.925781 17.304688 L 132.222656 16.625 L 175.71875 16.625 L 175.410156 17.304688 C 172.777344 17.304688 171.957031 17.730469 170.289062 18.886719 C 167.753906 20.644531 166 25.433594 161.359375 28.417969 C 159.007812 29.933594 154.859375 33.164062 147.875 33.164062 L 133.726562 33.164062 "/>
<path style=" stroke:none;fill-rule:nonzero;fill:rgb(12.550354%,22.297668%,40.101624%);fill-opacity:1;" d="M 24.261719 28.46875 L 22.652344 32.777344 L 17.535156 32.722656 Z M 24.261719 28.46875 "/>
<path style=" stroke:none;fill-rule:nonzero;fill:rgb(12.550354%,22.297668%,40.101624%);fill-opacity:1;" d="M 65.050781 28.570312 L 63.484375 32.777344 L 58.410156 32.777344 Z M 65.050781 28.570312 "/>
<path style=" stroke:none;fill-rule:nonzero;fill:rgb(12.550354%,22.297668%,40.101624%);fill-opacity:1;" d="M 121.644531 21.390625 L 122.257812 19.730469 L 113.921875 19.730469 L 115.253906 16.066406 L 123.789062 16.066406 C 126.769531 16.066406 127.933594 18.160156 127.394531 19.71875 C 126.859375 21.277344 122.566406 32.777344 122.566406 32.777344 L 111.992188 32.777344 C 110.199219 32.777344 108.046875 31.257812 108.976562 28.769531 C 109.796875 26.578125 110.128906 25.792969 110.394531 25.066406 C 111.363281 22.4375 114.675781 21.382812 116.703125 21.382812 C 118.726562 21.382812 121.644531 21.390625 121.644531 21.390625 Z M 115.535156 25.054688 L 114.035156 29.113281 L 118.785156 29.113281 L 120.285156 25.054688 Z M 74.222656 16.066406 L 79.289062 16.066406 C 79.289062 16.066406 78.957031 17.027344 78.046875 19.730469 C 77.777344 20.515625 77.023438 22.128906 75.964844 23.394531 C 74.769531 24.832031 72.683594 27.367188 72.265625 27.847656 C 71.847656 28.324219 71.953125 29.09375 72.910156 29.09375 L 77.9375 29.09375 L 82.757812 16.066406 L 87.855469 16.066406 C 87.855469 16.066406 82.605469 30.292969 81.671875 32.773438 C 79.90625 37.453125 76.117188 38.078125 74.402344 38.078125 L 65.964844 38.078125 L 67.210938 34.417969 L 74.632812 34.417969 C 75.292969 34.417969 76.140625 34.039062 76.410156 33.402344 C 76.5625 33.042969 76.667969 32.777344 76.667969 32.777344 L 70.089844 32.777344 C 67.609375 32.777344 66.503906 30.851562 66.503906 29.628906 C 66.503906 28.410156 67.214844 27.109375 68.632812 25.652344 C 70.046875 24.195312 71.054688 22.910156 71.683594 22.203125 C 72.316406 21.492188 72.878906 20.238281 73.042969 19.730469 Z M 62.558594 21.390625 L 63.171875 19.730469 L 54.835938 19.730469 L 56.171875 16.066406 L 64.710938 16.066406 C 67.6875 16.066406 68.851562 18.160156 68.316406 19.71875 C 67.996094 20.652344 66.277344 25.28125 64.992188 28.734375 L 58.65625 32.777344 L 52.910156 32.777344 C 51.121094 32.777344 48.964844 31.257812 49.894531 28.769531 C 50.714844 26.578125 51.046875 25.792969 51.316406 25.066406 C 52.28125 22.4375 55.59375 21.382812 57.621094 21.382812 C 59.648438 21.382812 62.558594 21.390625 62.558594 21.390625 Z M 56.457031 25.054688 L 54.953125 29.113281 L 59.703125 29.113281 L 61.207031 25.054688 Z M 38.613281 21.390625 L 39.226562 19.730469 L 30.890625 19.730469 L 32.226562 16.066406 L 40.761719 16.066406 C 43.738281 16.066406 44.902344 18.160156 44.367188 19.71875 C 43.832031 21.277344 39.535156 32.777344 39.535156 32.777344 L 28.964844 32.777344 C 27.171875 32.777344 25.019531 31.257812 25.949219 28.769531 C 26.765625 26.578125 27.097656 25.792969 27.367188 25.066406 C 28.332031 22.4375 31.648438 21.382812 33.671875 21.382812 C 35.699219 21.382812 38.613281 21.390625 38.613281 21.390625 Z M 32.507812 25.054688 L 31.003906 29.113281 L 35.757812 29.113281 L 37.257812 25.054688 Z M 27.484375 19.71875 C 27.167969 20.640625 25.449219 25.273438 24.167969 28.714844 L 17.535156 32.722656 L 22.34375 19.730469 L 18.722656 19.730469 L 13.894531 32.777344 L 8.757812 32.777344 L 13.585938 19.730469 L 9.960938 19.730469 L 5.136719 32.777344 L 0 32.777344 L 6.183594 16.066406 L 23.878906 16.066406 C 26.855469 16.066406 28.019531 18.160156 27.484375 19.71875 Z M 108.339844 11.753906 L 113.472656 11.753906 L 112.28125 14.964844 L 107.152344 14.964844 Z M 111.875 16.066406 L 105.691406 32.777344 L 100.5625 32.777344 L 106.746094 16.066406 Z M 49.371094 11.707031 L 54.402344 11.707031 L 46.605469 32.777344 L 41.574219 32.777344 Z M 93.332031 21.308594 L 97.808594 21.304688 C 100.785156 21.304688 101.949219 23.398438 101.414062 24.957031 C 101.191406 25.605469 100.671875 27.066406 100.140625 28.550781 C 100.140625 28.550781 99.1875 30.914062 97.898438 31.757812 C 96.613281 32.597656 96.03125 32.746094 93.464844 32.777344 C 92.859375 32.777344 83.265625 32.777344 83.265625 32.777344 L 84.652344 29.113281 L 94.15625 29.113281 C 94.445312 29.113281 94.722656 29.226562 94.980469 28.644531 C 95.117188 28.339844 96.058594 25.808594 96.140625 25.59375 C 96.242188 25.3125 96.101562 25.054688 95.761719 25.054688 L 91.199219 25.054688 C 88.222656 25.054688 87.058594 22.960938 87.59375 21.402344 C 87.730469 20.992188 87.992188 20.261719 88.296875 19.40625 C 89.441406 17.027344 92.441406 16.066406 94.375 16.066406 L 103.332031 16.066406 L 102.039062 19.730469 L 94.15625 19.730469 C 93.472656 19.730469 93.308594 19.835938 93.175781 20.097656 C 93.097656 20.25 92.898438 20.714844 92.820312 20.929688 C 92.757812 21.101562 92.875 21.308594 93.332031 21.308594 "/>
<g clip-path="url(#clip1)" clip-rule="nonzero">
<path style=" stroke:none;fill-rule:nonzero;fill:rgb(12.550354%,22.297668%,40.101624%);fill-opacity:1;" d="M 86.707031 36.027344 L 88.703125 36.027344 L 86.753906 40.089844 L 84.753906 40.089844 L 86.707031 36.027344 "/>
</g>
<g clip-path="url(#clip2)" clip-rule="nonzero">
<path style=" stroke:none;fill-rule:nonzero;fill:rgb(12.550354%,22.297668%,40.101624%);fill-opacity:1;" d="M 101.007812 36.027344 L 103.007812 36.027344 L 101.058594 40.089844 L 99.058594 40.089844 L 101.007812 36.027344 "/>
</g>
<g clip-path="url(#clip3)" clip-rule="nonzero">
<path style=" stroke:none;fill-rule:nonzero;fill:rgb(12.550354%,22.297668%,40.101624%);fill-opacity:1;" d="M 77.972656 40.089844 L 82.039062 36.027344 L 84.015625 36.027344 L 84.234375 40.089844 L 82.328125 40.089844 L 82.3125 39.523438 L 80.433594 39.523438 L 79.882812 40.089844 Z M 82.285156 38.503906 L 82.261719 37.648438 L 81.429688 38.503906 Z M 82.285156 38.503906 "/>
</g>
<g clip-path="url(#clip4)" clip-rule="nonzero">
<path style=" stroke:none;fill-rule:nonzero;fill:rgb(12.550354%,22.297668%,40.101624%);fill-opacity:1;" d="M 96.011719 36.027344 L 98.011719 36.027344 L 96.546875 39.070312 L 99.277344 39.070312 L 98.785156 40.089844 L 94.058594 40.089844 L 96.011719 36.027344 "/>
</g>
<g clip-path="url(#clip5)" clip-rule="nonzero">
<path style=" stroke:none;fill-rule:nonzero;fill:rgb(12.550354%,22.297668%,40.101624%);fill-opacity:1;" d="M 107.863281 36.027344 L 109.859375 36.027344 L 107.910156 40.089844 L 106.117188 40.089844 L 105.003906 38.257812 L 104.121094 40.089844 L 102.121094 40.089844 L 104.074219 36.027344 L 105.8125 36.027344 L 106.957031 37.914062 L 107.863281 36.027344 "/>
</g>
<g clip-path="url(#clip6)" clip-rule="nonzero">
<path style=" stroke:none;fill-rule:nonzero;fill:rgb(12.550354%,22.297668%,40.101624%);fill-opacity:1;" d="M 111.339844 39.070312 L 114.183594 39.070312 L 113.691406 40.089844 L 108.851562 40.089844 L 110.800781 36.027344 L 115.644531 36.027344 L 115.152344 37.046875 L 112.308594 37.046875 L 112.066406 37.546875 L 114.546875 37.546875 L 114.03125 38.566406 L 111.578125 38.566406 L 111.339844 39.070312 "/>
</g>
<g clip-path="url(#clip7)" clip-rule="nonzero">
<path style=" stroke:none;fill-rule:evenodd;fill:rgb(12.550354%,22.297668%,40.101624%);fill-opacity:1;" d="M 118.863281 37.335938 L 120.824219 37.335938 C 120.824219 37.335938 121.265625 36.027344 119.066406 35.945312 C 117.082031 35.875 115.914062 36.652344 115.722656 37.296875 C 115.476562 38.113281 116.121094 38.421875 117.390625 38.605469 C 117.941406 38.683594 118.179688 38.78125 118.105469 38.972656 C 118.042969 39.136719 117.777344 39.195312 117.488281 39.195312 C 116.773438 39.195312 116.835938 38.726562 116.835938 38.726562 L 114.882812 38.726562 C 114.882812 38.726562 114.902344 38.953125 114.902344 39.175781 C 114.902344 39.402344 115.140625 40.21875 117.039062 40.21875 C 119.496094 40.21875 120.125 39.320312 120.292969 38.871094 C 120.894531 37.253906 117.757812 37.785156 118.023438 37.191406 C 118.097656 37.027344 118.125 36.949219 118.433594 36.96875 C 119.023438 37.007812 118.863281 37.335938 118.863281 37.335938 "/>
</g>
<g clip-path="url(#clip8)" clip-rule="nonzero">
<path style=" stroke:none;fill-rule:nonzero;fill:rgb(12.550354%,22.297668%,40.101624%);fill-opacity:1;" d="M 89.71875 36.027344 L 93.042969 36.027344 C 94.183594 36.027344 95.015625 36.425781 94.460938 37.433594 C 94.242188 37.828125 94.121094 37.890625 93.433594 38.164062 C 93.433594 38.164062 94.007812 38.398438 93.671875 39.070312 L 93.160156 40.089844 L 91.191406 40.089844 C 91.191406 40.089844 91.484375 39.421875 91.644531 39.128906 C 91.800781 38.832031 91.742188 38.65625 91.46875 38.65625 L 90.457031 38.65625 L 89.769531 40.089844 L 87.769531 40.089844 Z M 91.222656 37.058594 L 90.902344 37.730469 L 91.882812 37.730469 C 92.394531 37.730469 92.828125 37.058594 92.195312 37.058594 L 91.222656 37.058594 "/>
</g>
</g>
</svg>

<svg xmlns="http://www.w3.org/2000/svg" width="176pt" height="53.627" viewBox="0 0 176 40.22"><defs><clipPath id="a"><path d="M84 36h5v4.219h-5Zm0 0"/></clipPath><clipPath id="b"><path d="M99 36h5v4.219h-5Zm0 0"/></clipPath><clipPath id="c"><path d="M77 36h8v4.219h-8Zm0 0"/></clipPath><clipPath id="d"><path d="M94 36h6v4.219h-6Zm0 0"/></clipPath><clipPath id="e"><path d="M102 36h8v4.219h-8Zm0 0"/></clipPath><clipPath id="f"><path d="M108 36h8v4.219h-8Zm0 0"/></clipPath><clipPath id="g"><path d="M114 35h7v5.219h-7Zm0 0"/></clipPath><clipPath id="h"><path d="M87 36h8v4.219h-8Zm0 0"/></clipPath></defs><path d="m132.223 16.625.3-.676h8.723c2.012 0 2.758-1.277 3.074-2.195.32-.918 1.051-3.086 1.371-4.164s-.12-1.957-1.57-1.957h-6.89l1.09-1.09h11.202c1.118 0 2.008.398 2.008 1.289s-1.886 5.32-1.886 6.36c0 1.038.726 1.796 2.046 1.796 1.317 0 3.164-.797 3.961-3.113.801-2.316 2.664-7.691 3.059-8.875.394-1.184 0-2.836-1.89-2.836h-12.212l1.024-1.16h13.164c2.453 0 7.5-.09 10.98 4.508 3.48 4.593.668 7.715 2.762 10.347 1.117 1.407 3.461 1.133 3.461 1.133l-.281.633z" style="stroke:none;fill-rule:evenodd;fill:#eb1d27;fill-opacity:1"/><path d="m133.727 33.164-.723-.973h12.129c1.527 0 3.472-.957 4.07-2.714.602-1.758 2.844-8.157 3.406-9.766.598-1.715-.48-2.367-1.836-2.367-3.234 0-4.085 4.203-4.8 6.293-.72 2.086-1.813 2.875-3.649 2.875h-11.277l-.2-.918h6.04c2.523 0 3.203-1.36 3.48-2.117.281-.758.918-2.446 1.399-3.883.48-1.438.043-2.29-1.477-2.29h-8.363l.297-.679h43.496l-.309.68c-2.633 0-3.453.425-5.12 1.582-2.536 1.758-4.29 6.547-8.93 9.531-2.352 1.516-6.5 4.746-13.485 4.746zM24.262 28.469l-1.61 4.308-5.117-.054ZM65.05 28.57l-1.566 4.207H58.41Zm0 0" style="stroke:none;fill-rule:nonzero;fill:#203966;fill-opacity:1"/><path d="m121.645 21.39.613-1.66h-8.336l1.332-3.664h8.535c2.98 0 4.145 2.094 3.606 3.653-.536 1.558-4.829 13.058-4.829 13.058h-10.574c-1.793 0-3.945-1.52-3.015-4.007.82-2.192 1.152-2.977 1.418-3.704.968-2.628 4.28-3.683 6.308-3.683 2.024 0 4.942.008 4.942.008m-6.11 3.665-1.5 4.058h4.75l1.5-4.058Zm-41.312-8.989h5.066s-.332.961-1.242 3.664c-.27.786-1.024 2.399-2.082 3.665-1.195 1.437-3.281 3.972-3.7 4.453-.417.476-.312 1.246.645 1.246h5.028l4.82-13.028h5.097s-5.25 14.227-6.183 16.707c-1.766 4.68-5.555 5.305-7.27 5.305h-8.437l1.246-3.66h7.422c.66 0 1.508-.379 1.777-1.016.153-.359.258-.625.258-.625H70.09c-2.48 0-3.586-1.925-3.586-3.148 0-1.219.71-2.52 2.129-3.977 1.414-1.457 2.422-2.742 3.05-3.449.633-.71 1.196-1.965 1.36-2.473Zm-11.664 5.325.613-1.66h-8.336l1.336-3.665h8.539c2.977 0 4.14 2.094 3.605 3.653-.32.933-2.039 5.562-3.324 9.015l-6.336 4.043H52.91c-1.789 0-3.945-1.52-3.015-4.007.82-2.192 1.152-2.977 1.421-3.704.965-2.628 4.278-3.683 6.305-3.683s4.938.008 4.938.008m-6.102 3.664-1.504 4.058h4.75l1.504-4.058ZM38.613 21.39l.614-1.66H30.89l1.336-3.665h8.535c2.976 0 4.14 2.094 3.605 3.653-.535 1.558-4.832 13.058-4.832 13.058h-10.57c-1.793 0-3.945-1.52-3.016-4.007.817-2.192 1.149-2.977 1.418-3.704.965-2.628 4.281-3.683 6.305-3.683 2.027 0 4.941.008 4.941.008m-6.105 3.664-1.504 4.058h4.754l1.5-4.058Zm-5.024-5.336c-.316.922-2.035 5.554-3.316 8.996l-6.633 4.008 4.809-12.993h-3.621l-4.828 13.047H8.758l4.828-13.047H9.96L5.137 32.777H0l6.184-16.71h17.695c2.976 0 4.14 2.093 3.605 3.652m80.856-7.965h5.133l-1.192 3.21h-5.129Zm3.535 4.312-6.184 16.711h-5.129l6.184-16.71Zm-62.504-4.359h5.031l-7.797 21.07h-5.03Zm43.961 9.602 4.477-.004c2.976 0 4.14 2.093 3.605 3.652-.223.648-.742 2.11-1.273 3.594 0 0-.954 2.363-2.243 3.207-1.285.84-1.867.988-4.433 1.02h-10.2l1.387-3.665h9.504c.29 0 .567.114.824-.468.137-.305 1.079-2.836 1.16-3.051.102-.282-.038-.54-.378-.54h-4.563c-2.976 0-4.14-2.093-3.605-3.652.136-.41.398-1.14.703-1.996 1.144-2.379 4.144-3.34 6.078-3.34h8.957l-1.293 3.664h-7.883c-.683 0-.847.106-.98.368-.078.152-.278.617-.356.832-.062.172.055.379.512.379" style="stroke:none;fill-rule:nonzero;fill:#203966;fill-opacity:1"/><g clip-path="url(#a)"><path d="M86.707 36.027h1.996l-1.95 4.063h-2z" style="stroke:none;fill-rule:nonzero;fill:#203966;fill-opacity:1"/></g><g clip-path="url(#b)"><path d="M101.008 36.027h2l-1.95 4.063h-2z" style="stroke:none;fill-rule:nonzero;fill:#203966;fill-opacity:1"/></g><g clip-path="url(#c)"><path d="m77.973 40.09 4.066-4.063h1.977l.218 4.063h-1.906l-.016-.567h-1.878l-.551.567Zm4.312-1.586-.023-.856-.832.856Zm0 0" style="stroke:none;fill-rule:nonzero;fill:#203966;fill-opacity:1"/></g><g clip-path="url(#d)"><path d="M96.012 36.027h2l-1.465 3.043h2.73l-.492 1.02H94.06z" style="stroke:none;fill-rule:nonzero;fill:#203966;fill-opacity:1"/></g><g clip-path="url(#e)"><path d="M107.863 36.027h1.996l-1.949 4.063h-1.793l-1.113-1.832-.883 1.832h-2l1.953-4.063h1.739l1.144 1.887z" style="stroke:none;fill-rule:nonzero;fill:#203966;fill-opacity:1"/></g><g clip-path="url(#f)"><path d="M111.34 39.07h2.844l-.493 1.02h-4.84l1.95-4.063h4.844l-.493 1.02h-2.843l-.243.5h2.48l-.515 1.02h-2.453z" style="stroke:none;fill-rule:nonzero;fill:#203966;fill-opacity:1"/></g><g clip-path="url(#g)"><path d="M118.863 37.336h1.961s.442-1.309-1.758-1.39c-1.984-.071-3.152.706-3.343 1.35-.246.817.398 1.126 1.668 1.31.55.078.789.175.714.367-.062.164-.328.222-.617.222-.715 0-.652-.468-.652-.468h-1.953s.02.226.02.449c0 .226.238 1.043 2.136 1.043 2.457 0 3.086-.899 3.254-1.348.602-1.617-2.535-1.086-2.27-1.68.075-.164.102-.242.41-.222.59.039.43.367.43.367" style="stroke:none;fill-rule:evenodd;fill:#203966;fill-opacity:1"/></g><g clip-path="url(#h)"><path d="M89.719 36.027h3.324c1.14 0 1.973.399 1.418 1.407-.219.394-.34.457-1.027.73 0 0 .574.234.238.906l-.512 1.02h-1.969s.293-.668.454-.961c.156-.297.097-.473-.176-.473h-1.012l-.687 1.434h-2Zm1.504 1.032-.32.671h.98c.512 0 .945-.671.312-.671z" style="stroke:none;fill-rule:nonzero;fill:#203966;fill-opacity:1"/></g></svg>
